icons/delete-back-2-fill.svg

<svg viewBox="0 0 24 24" fill="currentColor" xmlns="http://www.w3.org/2000/svg"><path d="M6.53451 3H20.9993C21.5516 3 21.9993 3.44772 21.9993 4V20C21.9993 20.5523 21.5516 21 20.9993 21H6.53451C6.20015 21 5.88792 20.8329 5.70246 20.5547L0.369122 12.5547C0.145189 12.2188 0.145189 11.7812 0.369122 11.4453L5.70246 3.4453C5.88792 3.1671 6.20015 3 6.53451 3ZM12.9993 10.5858L10.1709 7.75736L8.75668 9.17157L11.5851 12L8.75668 14.8284L10.1709 16.2426L12.9993 13.4142L15.8277 16.2426L17.242 14.8284L14.4135 12L17.242 9.17157L15.8277 7.75736L12.9993 10.5858Z"/></svg>

<svg xmlns="http://www.w3.org/2000/svg" viewBox="0 0 24 24">
    <g>
        <path fill="none" d="M0 0h24v24H0z"/>
        <path d="M6.535 3H21a1 1 0 0 1 1 1v16a1 1 0 0 1-1 1H6.535a1 1 0 0 1-.832-.445l-5.333-8a1 1 0 0 1 0-1.11l5.333-8A1 1 0 0 1 6.535 3zM13 10.586l-2.828-2.829-1.415 1.415L11.586 12l-2.829 2.828 1.415 1.415L13 13.414l2.828 2.829 1.415-1.415L14.414 12l2.829-2.828-1.415-1.415L13 10.586z"/>
    </g>
</svg>
